src/assets/outline/ArchiveSlash.svg

<svg width="24" height="24" viewBox="0 0 24 24"  xmlns="http://www.w3.org/2000/svg">
<path d="M1.99994 22.7504C1.80994 22.7504 1.61994 22.6804 1.46994 22.5304C1.17994 22.2404 1.17994 21.7604 1.46994 21.4704L21.4699 1.47043C21.7599 1.18043 22.2399 1.18043 22.5299 1.47043C22.8199 1.76043 22.8199 2.24043 22.5299 2.53043L2.52994 22.5304C2.37994 22.6804 2.18994 22.7504 1.99994 22.7504Z" />
<path d="M18.8802 22.75C18.3202 22.75 17.7202 22.58 17.1202 22.25L10.6002 18.18C10.2502 17.96 10.1402 17.5 10.3602 17.15C10.5802 16.8 11.0402 16.69 11.3902 16.91L17.8802 20.96C18.4402 21.27 19.0002 21.34 19.3602 21.13C19.7202 20.92 19.9302 20.4 19.9302 19.71V8.70996C19.9302 8.29996 20.2702 7.95996 20.6802 7.95996C21.0902 7.95996 21.4302 8.29996 21.4302 8.70996V19.71C21.4302 20.94 20.9502 21.93 20.1202 22.42C19.7502 22.64 19.3302 22.75 18.8802 22.75Z" />
<path d="M3.31982 20.7C2.90982 20.7 2.56982 20.36 2.56982 19.95V5.86C2.56982 3.32 4.63982 1.25 7.17982 1.25H16.8298C18.2198 1.25 19.5298 1.87 20.4098 2.96C20.6698 3.28 20.6198 3.75 20.2998 4.02C19.9798 4.28 19.5098 4.23 19.2498 3.91C18.6498 3.17 17.7698 2.75 16.8298 2.75H7.17982C5.46982 2.75 4.06982 4.15 4.06982 5.86V19.95C4.06982 20.36 3.72982 20.7 3.31982 20.7Z" />
</svg>

<?xml version="1.0" encoding="UTF-8"?>
<svg width="24" height="24" viewBox="0 0 24 24" xmlns="http://www.w3.org/2000/svg">
 <path d="m1.9999 22.75c-0.19 0-0.38-0.07-0.53-0.22-0.29-0.29-0.29-0.77 0-1.06l20-20c0.29-0.29 0.77-0.29 1.06 0s0.29 0.77 0 1.06l-20 20c-0.15 0.15-0.34 0.22-0.53 0.22z"/>
 <path d="m18.88 22.75c-0.56 0-1.16-0.17-1.76-0.5l-6.52-4.07c-0.35-0.22-0.46-0.68-0.24-1.03s0.68-0.46 1.03-0.24l6.49 4.05c0.56 0.31 1.12 0.38 1.48 0.17s0.57-0.73 0.57-1.42v-11c0-0.41 0.34-0.75 0.75-0.75s0.75 0.34 0.75 0.75v11c0 1.23-0.48 2.22-1.31 2.71-0.37 0.22-0.79 0.33-1.24 0.33z"/>
 <path d="m3.3198 20.7c-0.41 0-0.75-0.34-0.75-0.75v-14.09c0-2.54 2.07-4.61 4.61-4.61h9.65c1.39 0 2.7 0.62 3.58 1.71 0.26 0.32 0.21 0.79-0.11 1.06-0.32 0.26-0.79 0.21-1.05-0.11-0.6-0.74-1.48-1.16-2.42-1.16h-9.65c-1.71 0-3.11 1.4-3.11 3.11v14.09c0 0.41-0.34 0.75-0.75 0.75z"/>
</svg>
